X: 6
T: The Ivy Leaf
R: reel
M: 4/4
L: 1/8
K: Dmaj
|:A3e cAec | AecA (3Bcd BG | A3e cAed | BE E2 GABG |
A3e ce e2 |Ae e2 (3Bcd BG | A3e cAed | BE E2 GA (3Bcd ||
|:e3f ed (3Bcd |edge dG (3Bcd |eaag ed (3Bcd | BGEF GA (3Bcd |
e3f ed (3Bcd |edge dGBG |A3B =cBcd |edfd gedB ||
|:A3e cAed|gedg (3Bcd BG|A3e cAed|BE E2 GABG|
Ae e2 ce e2|ge e2 (3Bcd BG|A3B =c3d|BE E2 GA (3Bcd||
e3f ed (3Bcd|edge dG (3Bcd|eaag ed (3Bcd|edge dG (3Bcd|
e3a geag|eage dG (3Bcd|A3B =c3d|edgd aged||


Tune 1112	Setting 22767

